; generated by PrusaSlicer 2.3.0+win64 on 2021-03-09 at 21:22:22 UTC

; 

; external perimeters extrusion width = 0.45mm
; perimeters extrusion width = 0.45mm
; infill extrusion width = 0.45mm
; solid infill extrusion width = 0.45mm
; top infill extrusion width = 0.40mm
; first layer extrusion width = 0.42mm

M73 P0 R40
M73 Q0 S40
M201 X1000 Y1000 Z200 E5000 ; sets maximum accelerations, mm/sec^2
M203 X200 Y200 Z12 E120 ; sets maximum feedrates, mm/sec
M204 P1250 R1250 T1250 ; sets acceleration (P, T) and retract acceleration (R), mm/sec^2
M205 X8.00 Y8.00 Z0.40 E4.50 ; sets the jerk limits, mm/sec
M205 S0 T0 ; sets the minimum extruding and travel feed rate, mm/sec
M107
;TYPE:Custom
M862.3 P "MK3S" ; printer model check
M862.1 P0.4 ; nozzle diameter check
M115 U3.9.2 ; tell printer latest fw version
G90 ; use absolute coordinates
M83 ; extruder relative mode
M104 S215 ; set extruder temp
M140 S60 ; set bed temp
M190 S60 ; wait for bed temp
M109 S215 ; wait for extruder temp
G28 W ; home all without mesh bed level
G80 ; mesh bed leveling
G1 Y-3.0 F1000.0 ; go outside print area
G92 E0.0
G1 X60.0 E9.0 F1000.0 ; intro line
G1 X100.0 E12.5 F1000.0 ; intro line
G92 E0.0
M221 S95

; Don't change E values below. Excessive value can damage the printer.
M907 E430 ; set extruder motor current
G21 ; set units to millimeters
G90 ; use absolute coordinates
M83 ; use relative distances for extrusion
M900 K0.05 ; Filament gcode LA 1.5
M900 K30 ; Filament gcode LA 1.0
;LAYER_CHANGE
;Z:0.2
;HEIGHT:0.2
;BEFORE_LAYER_CHANGE
G92 E0.0
;0.2


G1 E-0.80000 F2100.000
G1 Z0.400 F10800.000
;AFTER_LAYER_CHANGE
;0.2
G1 X99.577 Y70.120
G1 Z0.200
G1 E0.80000 F2100.000
M204 S1000
;TYPE:Skirt
;WIDTH:0.42
G1 F1200.000
G1 X100.236 Y69.385 E0.03095
G1 X101.020 Y68.829 E0.03012
G1 X101.724 Y68.516 E0.02418
G1 X102.703 Y68.300 E0.03142
G1 X133.833 Y66.072 E0.97857
G1 X146.858 Y66.069 E0.40837
G1 X147.496 Y66.118 E0.02006
G1 X148.303 Y66.317 E0.02607
G1 X149.437 Y66.914 E0.04017
G1 X150.053 Y67.461 E0.02584
G1 X150.459 Y67.964 E0.02026
G1 X150.782 Y68.519 E0.02014
G1 X151.079 Y69.304 E0.02631
G1 X158.178 Y105.030 E1.14208
G1 X161.077 Y129.152 E0.76178
G1 X161.060 Y137.765 E0.27004
G1 X160.802 Y138.885 E0.03604
G1 X160.273 Y139.880 E0.03533
G1 X159.617 Y140.613 E0.03083
G1 X158.840 Y141.165 E0.02988
G1 X158.140 Y141.479 E0.02407
G1 X157.185 Y141.696 E0.03071
G1 X120.158 Y143.928 E1.16305
G1 X93.231 Y143.930 E0.84428
G1 X92.635 Y143.879 E0.01875
G1 X91.847 Y143.683 E0.02548
G1 X90.762 Y143.123 E0.03829
G1 X90.078 Y142.520 E0.02857
G1 X89.616 Y141.920 E0.02376
G1 X89.196 Y141.087 E0.02923
G1 X88.959 Y140.145 E0.03047
G1 X88.951 Y130.978 E0.28742
G1 X91.819 Y107.254 E0.74928
G1 X98.877 Y71.690 E1.13682
G1 X99.105 Y70.978 E0.02345
G1 X99.548 Y70.172 E0.02882
;WIPE_START
G1 F8640.000
G1 X100.236 Y69.385 E-0.24143
G1 X101.020 Y68.829 E-0.22179
G1 X101.724 Y68.516 E-0.17810
G1 X102.226 Y68.405 E-0.11868
;WIPE_END
G1 E-0.04000 F2100.000
G1 Z0.600 F10800.000
G1 X99.548 Y70.172
G1 X99.548 Y70.172
G1 X148.144 Y107.221
G1 Z0.200
G1 E0.80000 F2100.000
;TYPE:External perimeter
G1 F1200.000
G1 X148.144 Y135.306 E0.88060
G1 X154.914 Y135.306 E0.21227
G1 X154.914 Y129.309 E0.18804
G1 X154.925 Y129.133 E0.00552
G1 X154.969 Y128.933 E0.00640
G1 X155.081 Y128.665 E0.00913
G1 X155.282 Y128.396 E0.01053
G1 X155.429 Y128.267 E0.00613
G1 X155.721 Y128.102 E0.01052
G1 X156.002 Y128.025 E0.00914
G1 X156.219 Y128.006 E0.00682
G1 X156.691 Y128.006 E0.01480
G1 X157.025 Y128.048 E0.01054
G1 X157.343 Y128.177 E0.01075
G1 X157.474 Y128.262 E0.00491
G1 X157.631 Y128.400 E0.00656
G1 X157.733 Y128.521 E0.00496
G1 X157.883 Y128.778 E0.00934
G1 X157.951 Y128.971 E0.00640
G1 X157.981 Y129.124 E0.00490
G1 X157.994 Y137.333 E0.25739
M73 P1 R40
M73 Q1 S40
G1 X157.951 Y137.671 E0.01068
G1 X157.883 Y137.864 E0.00640
G1 X157.734 Y138.120 E0.00929
G1 X157.600 Y138.273 E0.00639
G1 X157.341 Y138.466 E0.01011
G1 X157.067 Y138.581 E0.00935
G1 X156.867 Y138.625 E0.00640
G1 X156.691 Y138.636 E0.00552
G1 X129.967 Y138.636 E0.83793
G1 X129.629 Y138.593 E0.01068
G1 X129.436 Y138.525 E0.00640
G1 X129.179 Y138.375 E0.00934
G1 X129.058 Y138.273 E0.00496
G1 X128.920 Y138.116 E0.00656
G1 X128.834 Y137.983 E0.00495
G1 X128.719 Y137.709 E0.00935
G1 X128.675 Y137.509 E0.00640
G1 X128.664 Y137.335 E0.00546
G1 X128.676 Y136.678 E0.02060
G1 X128.719 Y136.483 E0.00625
G1 X128.831 Y136.215 E0.00913
G1 X129.032 Y135.946 E0.01053
G1 X129.180 Y135.816 E0.00617
G1 X129.436 Y135.667 E0.00929
G1 X129.629 Y135.599 E0.00640
G1 X129.789 Y135.567 E0.00511
G1 X144.664 Y135.556 E0.46641
G1 X144.664 Y130.136 E0.16993
G1 X135.784 Y130.123 E0.27841
G1 X135.591 Y130.081 E0.00619
G1 X135.318 Y129.967 E0.00929
G1 X135.154 Y129.856 E0.00622
G1 X134.944 Y129.646 E0.00929
G1 X134.830 Y129.477 E0.00639
G1 X134.762 Y129.335 E0.00494
G1 X134.683 Y129.048 E0.00935
G1 X134.664 Y128.833 E0.00676
G1 X134.676 Y128.178 E0.02053
G1 X134.719 Y127.983 E0.00625
G1 X134.831 Y127.715 E0.00913
G1 X135.032 Y127.446 E0.01053
G1 X135.180 Y127.316 E0.00617
G1 X135.436 Y127.167 E0.00929
G1 X135.629 Y127.099 E0.00640
G1 X135.789 Y127.067 E0.00511
G1 X144.664 Y127.056 E0.27828
G1 X144.664 Y72.236 E1.71884
M73 P1 R39
G1 X133.967 Y72.236 E0.33540
G1 X133.633 Y72.194 E0.01054
G1 X133.317 Y72.066 E0.01069
G1 X133.155 Y71.956 E0.00613
G1 X132.921 Y71.715 E0.01054
G1 X132.775 Y71.464 E0.00913
G1 X132.707 Y71.271 E0.00640
G1 X132.675 Y71.111 E0.00511
G1 X132.675 Y70.281 E0.02604
G1 X132.706 Y70.125 E0.00496
G1 X132.835 Y69.808 E0.01075
G1 X132.920 Y69.676 E0.00491
G1 X133.058 Y69.519 E0.00656
G1 X133.179 Y69.417 E0.00496
G1 X133.436 Y69.267 E0.00934
G1 X133.629 Y69.199 E0.00640
G1 X133.967 Y69.156 E0.01068
G1 X146.887 Y69.159 E0.40511
G1 X147.187 Y69.201 E0.00949
G1 X147.332 Y69.249 E0.00478
G1 X147.629 Y69.417 E0.01070
G1 X147.777 Y69.547 E0.00618
G1 X147.957 Y69.782 E0.00929
G1 X148.047 Y69.959 E0.00622
G1 X148.125 Y70.244 E0.00929
G1 X148.144 Y70.461 E0.00682
G1 X148.144 Y104.066 E1.05365
G1 X148.484 Y104.406 E0.01508
G1 X153.841 Y104.406 E0.16797
G1 X154.179 Y104.449 E0.01068
G1 X154.372 Y104.517 E0.00640
G1 X154.629 Y104.667 E0.00934
G1 X154.750 Y104.769 E0.00496
G1 X154.888 Y104.926 E0.00656
G1 X154.974 Y105.059 E0.00495
G1 X155.089 Y105.333 E0.00935
G1 X155.133 Y105.533 E0.00640
G1 X155.144 Y105.707 E0.00547
G1 X155.132 Y106.361 E0.02051
G1 X155.042 Y106.697 E0.01092
G1 X154.972 Y106.837 E0.00490
G1 X154.852 Y107.002 E0.00640
G1 X154.567 Y107.217 E0.01118
G1 X148.204 Y107.220 E0.19950
G1 X147.744 Y107.225 F10800.000
G1 E-0.80000 F2100.000
G1 Z0.600 F10800.000
G1 X147.767 Y104.222
G1 Z0.200
G1 E0.80000 F2100.000
;TYPE:Perimeter
G1 F1200.000
G1 X148.328 Y104.783 E0.02488
G1 X153.829 Y104.783 E0.17248
G1 X154.080 Y104.813 E0.00791
G1 X154.212 Y104.861 E0.00442
G1 X154.410 Y104.976 E0.00718
G1 X154.587 Y105.155 E0.00789
G1 X154.728 Y105.447 E0.01018
G1 X154.767 Y105.716 E0.00850
G1 X154.756 Y106.322 E0.01902
G1 X154.738 Y106.417 E0.00301
G1 X154.649 Y106.640 E0.00756
G1 X154.577 Y106.739 E0.00384
G1 X154.452 Y106.840 E0.00502
G1 X147.767 Y106.844 E0.20960
G1 X147.767 Y135.683 E0.90424
G1 X155.291 Y135.683 E0.23591
G1 X155.291 Y129.321 E0.19948
G1 X155.330 Y129.047 E0.00866
G1 X155.411 Y128.853 E0.00659
G1 X155.561 Y128.653 E0.00785
G1 X155.649 Y128.576 E0.00367
G1 X155.866 Y128.453 E0.00782
G1 X156.069 Y128.398 E0.00660
G1 X156.235 Y128.383 E0.00524
G1 X156.679 Y128.383 E0.01391
G1 X156.917 Y128.411 E0.00750
G1 X157.167 Y128.512 E0.00847
G1 X157.361 Y128.666 E0.00776
G1 X157.539 Y128.938 E0.01019
G1 X157.604 Y129.161 E0.00729
G1 X157.617 Y137.322 E0.25587
G1 X157.587 Y137.572 E0.00790
G1 X157.539 Y137.704 E0.00442
G1 X157.427 Y137.898 E0.00703
G1 X157.334 Y138.003 E0.00438
G1 X157.164 Y138.132 E0.00668
G1 X156.953 Y138.220 E0.00719
G1 X156.679 Y138.259 E0.00866
G1 X129.979 Y138.259 E0.83717
G1 X129.728 Y138.229 E0.00791
G1 X129.596 Y138.181 E0.00442
G1 X129.398 Y138.066 E0.00718
G1 X129.221 Y137.887 E0.00789
G1 X129.080 Y137.595 E0.01018
G1 X129.041 Y137.327 E0.00849
G1 X129.053 Y136.722 E0.01895
G1 X129.080 Y136.597 E0.00401
G1 X129.161 Y136.403 E0.00659
G1 X129.311 Y136.203 E0.00784
G1 X129.402 Y136.123 E0.00379
G1 X129.596 Y136.011 E0.00703
G1 X129.837 Y135.942 E0.00787
G1 X145.041 Y135.933 E0.47671
G1 X145.041 Y129.760 E0.19356
G1 X135.825 Y129.746 E0.28895
G1 X135.705 Y129.720 E0.00385
G1 X135.499 Y129.634 E0.00703
G1 X135.395 Y129.564 E0.00392
G1 X135.237 Y129.405 E0.00703
G1 X135.116 Y129.202 E0.00739
G1 X135.056 Y128.981 E0.00720
G1 X135.042 Y128.820 E0.00507
G1 X135.053 Y128.222 E0.01874
G1 X135.080 Y128.097 E0.00401
G1 X135.161 Y127.903 E0.00659
G1 X135.311 Y127.703 E0.00785
G1 X135.402 Y127.623 E0.00379
G1 X135.596 Y127.511 E0.00703
G1 X135.837 Y127.442 E0.00787
G1 X145.041 Y127.433 E0.28859
G1 X145.041 Y71.859 E1.74249
G1 X133.979 Y71.859 E0.34685
G1 X133.741 Y71.831 E0.00750
G1 X133.496 Y71.732 E0.00831
G1 X133.399 Y71.666 E0.00367
G1 X133.224 Y71.486 E0.00787
G1 X133.119 Y71.304 E0.00658
G1 X133.050 Y71.063 E0.00787
G1 X133.041 Y70.471 E0.01857
G1 X133.069 Y70.233 E0.00750
G1 X133.170 Y69.983 E0.00847
G1 X133.221 Y69.905 E0.00292
G1 X133.398 Y69.726 E0.00789
G1 X133.596 Y69.611 E0.00718
G1 X133.728 Y69.563 E0.00442
G1 X133.979 Y69.533 E0.00791
G1 X146.861 Y69.536 E0.40391
G1 X147.178 Y69.595 E0.01011
G1 X147.409 Y69.726 E0.00832
G1 X147.500 Y69.806 E0.00380
G1 X147.637 Y69.984 E0.00703
G1 X147.693 Y70.095 E0.00391
G1 X147.752 Y70.311 E0.00702
G1 X147.767 Y70.478 E0.00524
G1 X147.767 Y104.162 E1.05616
M73 P2 R39
M73 Q2 S40
G1 X147.390 Y104.378 F10800.000
G1 F1200.000
G1 X148.172 Y105.160 E0.03467
G1 X153.923 Y105.167 E0.18031
M73 Q2 S39
G1 X154.053 Y105.204 E0.00426
G1 X154.192 Y105.285 E0.00501
G1 X154.286 Y105.384 E0.00429
G1 X154.367 Y105.561 E0.00612
G1 X154.389 Y105.725 E0.00516
G1 X154.379 Y106.283 E0.01753
G1 X154.325 Y106.463 E0.00588
G1 X147.390 Y106.467 E0.21745
G1 X147.390 Y136.060 E0.92788
G1 X155.668 Y136.060 E0.25956
G1 X155.674 Y129.238 E0.21391
G1 X155.741 Y129.042 E0.00648
G1 X155.839 Y128.910 E0.00516
G1 X156.011 Y128.805 E0.00631
G1 X156.252 Y128.760 E0.00769
G1 X156.773 Y128.767 E0.01633
G1 X156.992 Y128.848 E0.00732
G1 X157.092 Y128.931 E0.00408
G1 X157.196 Y129.097 E0.00614
G1 X157.227 Y129.198 E0.00331
G1 X157.240 Y137.310 E0.25435
G1 X157.233 Y137.415 E0.00329
G1 X157.196 Y137.545 E0.00426
G1 X157.119 Y137.677 E0.00477
G1 X156.987 Y137.797 E0.00561
G1 X156.839 Y137.859 E0.00503
G1 X156.667 Y137.882 E0.00543
G1 X129.991 Y137.882 E0.83641
G1 X129.885 Y137.875 E0.00332
G1 X129.755 Y137.838 E0.00426
G1 X129.616 Y137.758 E0.00501
G1 X129.522 Y137.658 E0.00429
G1 X129.441 Y137.481 E0.00612
G1 X129.419 Y137.318 E0.00515
G1 X129.429 Y136.766 E0.01730
G1 X129.491 Y136.592 E0.00580
G1 X129.589 Y136.460 E0.00516
G1 X129.755 Y136.354 E0.00616
G1 X129.885 Y136.317 E0.00426
G1 X145.418 Y136.310 E0.48702
G1 X145.418 Y129.383 E0.21719
G1 X135.866 Y129.369 E0.29950
G1 X135.679 Y129.300 E0.00626
G1 X135.529 Y129.164 E0.00637
G1 X135.471 Y129.070 E0.00347
G1 X135.419 Y128.807 E0.00839
G1 X135.429 Y128.266 E0.01696
G1 X135.491 Y128.092 E0.00580
G1 X135.623 Y127.931 E0.00654
G1 X135.755 Y127.854 E0.00477
G1 X135.885 Y127.817 E0.00426
G1 X145.418 Y127.810 E0.29889
G1 X145.418 Y71.482 E1.76613
G1 X133.885 Y71.475 E0.36160
G1 X133.642 Y71.375 E0.00824
G1 X133.527 Y71.256 E0.00520
G1 X133.462 Y71.145 E0.00403
G1 X133.425 Y71.015 E0.00426
G1 X133.432 Y70.341 E0.02112
G1 X133.522 Y70.134 E0.00709
G1 X133.616 Y70.035 E0.00429
G1 X133.755 Y69.954 E0.00501
G1 X133.885 Y69.917 E0.00426
G1 X133.991 Y69.910 E0.00331
G1 X146.835 Y69.913 E0.40272
G1 X147.020 Y69.939 E0.00586
G1 X147.190 Y70.035 E0.00611
G1 X147.340 Y70.231 E0.00775
G1 X147.390 Y70.494 E0.00838
G1 X147.390 Y104.318 E1.06054
G1 E-0.80000 F2100.000
G1 Z0.600 F10800.000
G1 X147.277 Y71.056
G1 Z0.200
G1 E0.80000 F2100.000
;TYPE:Solid infill
;WIDTH:0.421078
G1 F1200.000
G1 X146.417 Y70.196 E0.03825
G1 X145.882 Y70.196 E0.01682
G1 X147.107 Y71.421 E0.05449
G1 X147.107 Y71.956 E0.01682
G1 X145.347 Y70.196 E0.07828
G1 X144.812 Y70.196 E0.01682
G1 X147.107 Y72.491 E0.10207
G1 X147.107 Y73.026 E0.01682
G1 X145.701 Y71.620 E0.06253
G1 X145.701 Y71.199 E0.01322
G1 X145.280 Y71.199 E0.01323
G1 X144.277 Y70.196 E0.04462
G1 X143.742 Y70.195 E0.01682
G1 X144.745 Y71.199 E0.04461
G1 X144.210 Y71.198 E0.01683
G1 X143.207 Y70.195 E0.04460
G1 X142.672 Y70.195 E0.01682
G1 X143.675 Y71.198 E0.04460
G1 X143.140 Y71.198 E0.01683
G1 X142.137 Y70.195 E0.04459
G1 X141.602 Y70.195 E0.01682
G1 X142.605 Y71.197 E0.04458
G1 X142.070 Y71.197 E0.01683
G1 X141.067 Y70.195 E0.04457
G1 X140.532 Y70.195 E0.01682
G1 X141.535 Y71.197 E0.04456
G1 X140.999 Y71.196 E0.01683
G1 X139.997 Y70.194 E0.04456
G1 X139.463 Y70.194 E0.01682
G1 X140.464 Y71.196 E0.04455
G1 X139.929 Y71.196 E0.01683
G1 X138.928 Y70.194 E0.04454
G1 X138.393 Y70.194 E0.01682
G1 X139.394 Y71.196 E0.04453
G1 X138.859 Y71.195 E0.01683
G1 X137.858 Y70.194 E0.04452
G1 X137.323 Y70.194 E0.01682
G1 X138.324 Y71.195 E0.04452
G1 X137.789 Y71.195 E0.01683
G1 X136.788 Y70.194 E0.04451
G1 X136.253 Y70.194 E0.01682
G1 X137.254 Y71.194 E0.04450
G1 X136.719 Y71.194 E0.01683
G1 X135.718 Y70.193 E0.04449
G1 X135.183 Y70.193 E0.01682
G1 X136.183 Y71.194 E0.04448
G1 X135.648 Y71.193 E0.01683
G1 X134.648 Y70.193 E0.04448
G1 X134.113 Y70.193 E0.01682
G1 X135.113 Y71.193 E0.04447
G1 X134.578 Y71.193 E0.01683
G1 X133.734 Y70.349 E0.03753
G1 X133.701 Y70.495 E0.00471
G1 X133.706 Y70.855 E0.01133
G1 X134.213 Y71.362 E0.02255
G1 E-0.80000 F2100.000
G1 Z0.600 F10800.000
G1 X145.531 Y71.985
G1 Z0.200
G1 E0.80000 F2100.000
G1 F1200.000
G1 X147.107 Y73.561 E0.07007
G1 X147.107 Y74.095 E0.01682
G1 X145.701 Y72.689 E0.06253
G1 X145.701 Y73.224 E0.01682
G1 X147.107 Y74.630 E0.06253
G1 X147.107 Y75.165 E0.01682
G1 X145.701 Y73.759 E0.06253
G1 X145.701 Y74.294 E0.01682
G1 X147.107 Y75.700 E0.06253
G1 X147.107 Y76.235 E0.01682
G1 X145.701 Y74.828 E0.06253
G1 X145.701 Y75.363 E0.01682
G1 X147.107 Y76.769 E0.06253
G1 X147.107 Y77.304 E0.01682
G1 X145.701 Y75.898 E0.06253
G1 X145.701 Y76.433 E0.01682
G1 X147.107 Y77.839 E0.06253
G1 X147.107 Y78.374 E0.01682
G1 X145.701 Y76.968 E0.06253
G1 X145.701 Y77.502 E0.01682
G1 X147.107 Y78.908 E0.06253
G1 X147.107 Y79.443 E0.01682
G1 X145.701 Y78.037 E0.06253
G1 X145.701 Y78.572 E0.01682
G1 X147.107 Y79.978 E0.06253
G1 X147.107 Y80.513 E0.01682
G1 X145.701 Y79.107 E0.06253
G1 X145.701 Y79.642 E0.01682
G1 X147.107 Y81.048 E0.06253
G1 X147.107 Y81.582 E0.01682
G1 X145.701 Y80.176 E0.06253
G1 X145.701 Y80.711 E0.01682
G1 X147.107 Y82.117 E0.06253
G1 X147.107 Y82.652 E0.01682
G1 X145.701 Y81.246 E0.06253
G1 X145.701 Y81.781 E0.01682
G1 X147.107 Y83.187 E0.06253
G1 X147.107 Y83.722 E0.01682
G1 X145.701 Y82.316 E0.06253
G1 X145.701 Y82.850 E0.01682
G1 X147.107 Y84.256 E0.06253
G1 X147.107 Y84.791 E0.01682
G1 X145.701 Y83.385 E0.06253
G1 X145.701 Y83.920 E0.01682
G1 X147.107 Y85.326 E0.06253
G1 X147.107 Y85.861 E0.01682
G1 X145.701 Y84.455 E0.06253
G1 X145.701 Y84.990 E0.01682
G1 X147.107 Y86.396 E0.06253
G1 X147.107 Y86.930 E0.01682
G1 X145.701 Y85.524 E0.06253
G1 X145.701 Y86.059 E0.01682
G1 X147.107 Y87.465 E0.06253
G1 X147.107 Y88.000 E0.01682
G1 X145.701 Y86.594 E0.06253
G1 X145.701 Y87.129 E0.01682
G1 X147.107 Y88.535 E0.06253
G1 X147.107 Y89.070 E0.01682
G1 X145.701 Y87.664 E0.06253
G1 X145.701 Y88.198 E0.01682
G1 X147.107 Y89.604 E0.06253
G1 X147.107 Y90.139 E0.01682
G1 X145.701 Y88.733 E0.06253
G1 X145.701 Y89.268 E0.01682
G1 X147.107 Y90.674 E0.06253
G1 X147.107 Y91.209 E0.01682
G1 X145.701 Y89.803 E0.06253
G1 X145.701 Y90.338 E0.01682
G1 X147.107 Y91.744 E0.06253
G1 X147.107 Y92.278 E0.01682
G1 X145.701 Y90.872 E0.06253
G1 X145.701 Y91.407 E0.01682
G1 X147.107 Y92.813 E0.06253
G1 X147.107 Y93.348 E0.01682
G1 X145.701 Y91.942 E0.06253
G1 X145.701 Y92.477 E0.01682
G1 X147.107 Y93.883 E0.06253
G1 X147.107 Y94.418 E0.01682
G1 X145.701 Y93.011 E0.06253
G1 X145.701 Y93.546 E0.01682
G1 X147.107 Y94.952 E0.06253
G1 X147.107 Y95.487 E0.01682
G1 X145.701 Y94.081 E0.06253
G1 X145.701 Y94.616 E0.01682
G1 X147.107 Y96.022 E0.06253
